docs/assets/images/illustrations/icon-3d.svg

<?xml version="1.0" encoding="UTF-8" standalone="no"?>
<svg
   xmlns:dc="http://purl.org/dc/elements/1.1/"
   xmlns:cc="http://creativecommons.org/ns#"
   xmlns:rdf="http://www.w3.org/1999/02/22-rdf-syntax-ns#"
   xmlns:svg="http://www.w3.org/2000/svg"
   xmlns="http://www.w3.org/2000/svg"
   xmlns:sodipodi="http://sodipodi.sourceforge.net/DTD/sodipodi-0.dtd"
   xmlns:inkscape="http://www.inkscape.org/namespaces/inkscape"
   inkscape:version="0.92.4 5da689c313, 2019-01-14"
   sodipodi:docname="icon-3d.svg"
   width="128"
   height="128"
   viewBox="0 0 128 128"
   version="1.1"
   id="SVGRoot">
  <sodipodi:namedview
     pagecolor="#ffffff"
     bordercolor="#666666"
     borderopacity="1"
     objecttolerance="10"
     gridtolerance="10"
     guidetolerance="10"
     inkscape:pageopacity="0"
     inkscape:pageshadow="2"
     inkscape:window-width="1920"
     inkscape:window-height="1010"
     id="namedview1887"
     showgrid="false"
     inkscape:zoom="10.429825"
     inkscape:cx="52.512477"
     inkscape:cy="46.847618"
     inkscape:window-x="1600"
     inkscape:window-y="28"
     inkscape:window-maximized="1"
     inkscape:current-layer="SVGRoot" />
  <title
     id="title1601">Image </title>
  <defs
     id="defs849">
    <inkscape:perspective
       sodipodi:type="inkscape:persp3d"
       inkscape:vp_x="-292.30166 : 221.34274 : 1"
       inkscape:vp_y="0 : 5578.329 : 0"
       inkscape:vp_z="148.23452 : 135.87715 : 1"
       inkscape:persp3d-origin="-86.897146 : 71.124876 : 1"
       id="perspective890" />
  </defs>
  <metadata
     id="metadata852">
    <rdf:RDF>
      <cc:Work
         rdf:about="">
        <dc:format>image/svg+xml</dc:format>
        <dc:type
           rdf:resource="http://purl.org/dc/dcmitype/StillImage" />
        <dc:title>Image </dc:title>
        <dc:date>June 2019</dc:date>
        <dc:creator>
          <cc:Agent>
            <dc:title>Sujaykumar Hublikar</dc:title>
          </cc:Agent>
        </dc:creator>
        <dc:rights>
          <cc:Agent>
            <dc:title>Creative Commons Attribution-NonCommercial-ShareAlike 4.0 International License.</dc:title>
          </cc:Agent>
        </dc:rights>
        <dc:publisher>
          <cc:Agent>
            <dc:title>Sujaykumar Hublikar</dc:title>
          </cc:Agent>
        </dc:publisher>
        <dc:subject>
          <rdf:Bag>
            <rdf:li>image</rdf:li>
          </rdf:Bag>
        </dc:subject>
        <dc:description>Image</dc:description>
        <dc:contributor>
          <cc:Agent>
            <dc:title>https://github.com/Sujaykumarh</dc:title>
          </cc:Agent>
        </dc:contributor>
        <cc:license
           rdf:resource="http://creativecommons.org/licenses/by-nc-sa/4.0/" />
      </cc:Work>
      <cc:License
         rdf:about="http://creativecommons.org/licenses/by-nc-sa/4.0/">
        <cc:permits
           rdf:resource="http://creativecommons.org/ns#Reproduction" />
        <cc:permits
           rdf:resource="http://creativecommons.org/ns#Distribution" />
        <cc:requires
           rdf:resource="http://creativecommons.org/ns#Notice" />
        <cc:requires
           rdf:resource="http://creativecommons.org/ns#Attribution" />
        <cc:prohibits
           rdf:resource="http://creativecommons.org/ns#CommercialUse" />
        <cc:permits
           rdf:resource="http://creativecommons.org/ns#DerivativeWorks" />
        <cc:requires
           rdf:resource="http://creativecommons.org/ns#ShareAlike" />
      </cc:License>
    </rdf:RDF>
  </metadata>
  <g
     id="g1058"
     transform="matrix(1.2275527,0,0,1.2275527,-19.556806,-22.29863)">
    <g
       transform="matrix(1.0245774,0,0,1.0245774,11.379005,7.1402084)"
       id="g1045">
      <circle
         style="opacity:1;fill:#8686bf;fill-opacity:1;fill-rule:evenodd;stroke:none;stroke-width:10;stroke-linecap:round;stroke-linejoin:round;stroke-miterlimit:4;stroke-dasharray:none;stroke-dashoffset:0;stroke-opacity:1;paint-order:normal"
         id="path971"
         cx="39.05085"
         cy="34.983047"
         r="16.542374" />
      <path
         inkscape:connector-curvature="0"
         style="opacity:1;fill:#d7d7ff;fill-opacity:1;fill-rule:evenodd;stroke:none;stroke-width:11.98760796;stroke-linecap:round;stroke-linejoin:round;stroke-miterlimit:4;stroke-dasharray:none;stroke-dashoffset:0;stroke-opacity:1;paint-order:normal"
         d="M 39.050781,18.441406 A 16.542374,16.542374 0 0 0 24.074219,28.001953 19.83035,19.83035 0 0 0 29.736328,44.171875 19.83035,19.83035 0 0 0 46.544922,49.730469 16.542374,16.542374 0 0 0 55.59375,34.982422 16.542374,16.542374 0 0 0 39.050781,18.441406 Z"
         id="path1027" />
      <circle
         r="4.9491529"
         cy="27.457623"
         cx="46.169495"
         id="circle1040"
         style="opacity:1;fill:#efefff;fill-opacity:1;fill-rule:evenodd;stroke:none;stroke-width:2.99180341;stroke-linecap:round;stroke-linejoin:round;stroke-miterlimit:4;stroke-dasharray:none;stroke-dashoffset:0;stroke-opacity:1;paint-order:normal" />
    </g>
    <g
       transform="matrix(-0.80856469,0,0,0.80856469,139.32496,24.929202)"
       id="g953-3">
      <path
         sodipodi:nodetypes="ccccc"
         inkscape:connector-curvature="0"
         id="path926-6"
         style="fill:#efefff;fill-opacity:1;fill-rule:evenodd;stroke:none;stroke-width:19.37807083;stroke-linecap:round;stroke-linejoin:round;stroke-miterlimit:4;stroke-dasharray:none;stroke-dashoffset:0;stroke-opacity:1;paint-order:normal"
         d="m 27.677966,39.351167 37.405666,9.37278 24.1203,-12.123773 -35.613691,-7.219212 z" />
      <path
         sodipodi:nodetypes="ccccc"
         inkscape:connector-curvature="0"
         id="path928-7"
         style="fill:#8686bf;fill-opacity:1;fill-rule:evenodd;stroke:none;stroke-width:19.37807083;stroke-linecap:round;stroke-linejoin:round;stroke-miterlimit:4;stroke-dasharray:none;stroke-dashoffset:0;stroke-opacity:1;paint-order:normal"
         d="M 65.083632,48.723947 V 88.54173 l 24.1203,-16.377587 V 36.600174 Z" />
      <path
         sodipodi:nodetypes="ccccc"
         inkscape:connector-curvature="0"
         id="path930-5"
         style="fill:#d7d7ff;fill-opacity:1;fill-rule:evenodd;stroke:none;stroke-width:19.37807083;stroke-linecap:round;stroke-linejoin:round;stroke-miterlimit:4;stroke-dasharray:none;stroke-dashoffset:0;stroke-opacity:1;paint-order:normal"
         d="m 27.677966,39.351167 37.405666,9.37278 V 88.54173 L 27.677966,77.160466 Z" />
    </g>
    <g
       transform="matrix(0.7522045,0,0,0.7522045,-69.393652,19.678372)"
       id="g968-3">
      <path
         sodipodi:nodetypes="cccc"
         inkscape:connector-curvature="0"
         id="path961-5"
         d="m 159.04762,126.14954 -41.28216,-8.7101 36.62189,-54.609316 z"
         inkscape:transform-center-y="-9.1015531"
         style="opacity:1;fill:#8686bf;fill-opacity:1;fill-rule:evenodd;stroke:none;stroke-width:10;stroke-linecap:round;stroke-linejoin:round;stroke-miterlimit:4;stroke-dasharray:none;stroke-dashoffset:0;stroke-opacity:1;paint-order:normal" />
      <path
         style="opacity:1;fill:#d7d7ff;fill-opacity:1;fill-rule:evenodd;stroke:none;stroke-width:10;stroke-linecap:round;stroke-linejoin:round;stroke-miterlimit:4;stroke-dasharray:none;stroke-dashoffset:0;stroke-opacity:1;paint-order:normal"
         inkscape:transform-center-y="-9.1015531"
         d="m 192.38257,117.43944 -33.33495,8.7101 -4.66027,-63.319416 z"
         id="path963-6"
         inkscape:connector-curvature="0"
         sodipodi:nodetypes="cccc" />
    </g>
  </g>
  <g
     id="g852"
     transform="translate(2.3857841)">
    <rect
       ry="2.6942568"
       rx="2.6942568"
       y="-29.995428"
       x="51.271847"
       height="7.6518555"
       width="7.6518555"
       id="rect828"
       style="opacity:1;fill:#d7d7ff;fill-opacity:1;fill-rule:evenodd;stroke:none;stroke-width:3.91891885;stroke-linecap:round;stroke-linejoin:round;stroke-miterlimit:4;stroke-dasharray:none;stroke-dashoffset:0;stroke-opacity:1;paint-order:normal" />
    <rect
       ry="2.6942568"
       rx="2.6942568"
       y="-30.101704"
       x="64.092178"
       height="7.8644066"
       width="7.8644066"
       id="rect830"
       style="opacity:1;fill:#8686bf;fill-opacity:1;fill-rule:evenodd;stroke:none;stroke-width:3.91891885;stroke-linecap:round;stroke-linejoin:round;stroke-miterlimit:4;stroke-dasharray:none;stroke-dashoffset:0;stroke-opacity:1;paint-order:normal" />
    <rect
       style="opacity:1;fill:#efefff;fill-opacity:1;fill-rule:evenodd;stroke:none;stroke-width:3.91891885;stroke-linecap:round;stroke-linejoin:round;stroke-miterlimit:4;stroke-dasharray:none;stroke-dashoffset:0;stroke-opacity:1;paint-order:normal"
       id="rect834"
       width="7.6518555"
       height="7.6518555"
       x="38.345242"
       y="-29.995428"
       rx="2.6942568"
       ry="2.6942568" />
    <rect
       style="opacity:1;fill:#4d4d9f;fill-opacity:1;fill-rule:evenodd;stroke:none;stroke-width:3.91891885;stroke-linecap:round;stroke-linejoin:round;stroke-miterlimit:4;stroke-dasharray:none;stroke-dashoffset:0;stroke-opacity:1;paint-order:normal"
       id="rect836"
       width="7.8644066"
       height="7.8644066"
       x="77.018784"
       y="-30.101704"
       rx="2.6942568"
       ry="2.6942568" />
  </g>
</svg>

<?xml version="1.0" encoding="UTF-8"?>
<svg width="128" height="128" version="1.1" viewBox="0 0 128 128" xmlns="http://www.w3.org/2000/svg" xmlns:cc="http://creativecommons.org/ns#" xmlns:dc="http://purl.org/dc/elements/1.1/" xmlns:rdf="http://www.w3.org/1999/02/22-rdf-syntax-ns#"><title>Image</title><metadata><rdf:RDF><cc:Work rdf:about=""><dc:format>image/svg+xml</dc:format><dc:type rdf:resource="http://purl.org/dc/dcmitype/StillImage"/><dc:title>Image</dc:title><dc:date>June 2019</dc:date><dc:creator><cc:Agent><dc:title>Sujaykumar Hublikar</dc:title></cc:Agent></dc:creator><dc:rights><cc:Agent><dc:title>Creative Commons Attribution-NonCommercial-ShareAlike 4.0 International License.</dc:title></cc:Agent></dc:rights><dc:publisher><cc:Agent><dc:title>Sujaykumar Hublikar</dc:title></cc:Agent></dc:publisher><dc:subject><rdf:Bag><rdf:li>image</rdf:li></rdf:Bag></dc:subject><dc:description>Image</dc:description><dc:contributor><cc:Agent><dc:title>https://github.com/Sujaykumarh</dc:title></cc:Agent></dc:contributor><cc:license rdf:resource="http://creativecommons.org/licenses/by-nc-sa/4.0/"/></cc:Work><cc:License rdf:about="http://creativecommons.org/licenses/by-nc-sa/4.0/"><cc:permits rdf:resource="http://creativecommons.org/ns#Reproduction"/><cc:permits rdf:resource="http://creativecommons.org/ns#Distribution"/><cc:requires rdf:resource="http://creativecommons.org/ns#Notice"/><cc:requires rdf:resource="http://creativecommons.org/ns#Attribution"/><cc:prohibits rdf:resource="http://creativecommons.org/ns#CommercialUse"/><cc:permits rdf:resource="http://creativecommons.org/ns#DerivativeWorks"/><cc:requires rdf:resource="http://creativecommons.org/ns#ShareAlike"/></cc:License></rdf:RDF></metadata><g transform="matrix(1.2276 0 0 1.2276 -19.557 -22.299)" fill-rule="evenodd"><g transform="matrix(1.0246 0 0 1.0246 11.379 7.1402)"><circle cx="39.051" cy="34.983" r="16.542" fill="#8686bf" style="paint-order:normal"/><path d="m39.051 18.441a16.542 16.542 0 0 0-14.977 9.5605 19.83 19.83 0 0 0 5.6621 16.17 19.83 19.83 0 0 0 16.809 5.5586 16.542 16.542 0 0 0 9.0488-14.748 16.542 16.542 0 0 0-16.543-16.541z" fill="#d7d7ff" style="paint-order:normal"/><circle cx="46.169" cy="27.458" r="4.9492" fill="#efefff" style="paint-order:normal"/></g><g transform="matrix(-.80856 0 0 .80856 139.32 24.929)"><path d="m27.678 39.351 37.406 9.3728 24.12-12.124-35.614-7.2192z" fill="#efefff" style="paint-order:normal"/><path d="m65.084 48.724v39.818l24.12-16.378v-35.564z" fill="#8686bf" style="paint-order:normal"/><path d="m27.678 39.351 37.406 9.3728v39.818l-37.406-11.381z" fill="#d7d7ff" style="paint-order:normal"/></g><g transform="matrix(.7522 0 0 .7522 -69.394 19.678)"><path d="m159.05 126.15-41.282-8.7101 36.622-54.609z" fill="#8686bf" style="paint-order:normal"/><path d="m192.38 117.44-33.335 8.7101-4.6603-63.319z" fill="#d7d7ff" style="paint-order:normal"/></g></g><g transform="translate(2.3858)" fill-rule="evenodd"><rect x="51.272" y="-29.995" width="7.6519" height="7.6519" rx="2.6943" ry="2.6943" fill="#d7d7ff" style="paint-order:normal"/><rect x="64.092" y="-30.102" width="7.8644" height="7.8644" rx="2.6943" ry="2.6943" fill="#8686bf" style="paint-order:normal"/><rect x="38.345" y="-29.995" width="7.6519" height="7.6519" rx="2.6943" ry="2.6943" fill="#efefff" style="paint-order:normal"/><rect x="77.019" y="-30.102" width="7.8644" height="7.8644" rx="2.6943" ry="2.6943" fill="#4d4d9f" style="paint-order:normal"/></g></svg>
